X:1
T: Down the Tannoch Road
C:A. Harper
R:Jig
Q:180
K:D
M:6/8
L:1/16
|:d2|A2F2G2 A4d2|c4B2 B4B2|B2E2F2 G4c2|B4A2 A4A2|
A2F2G2 A4d2|e4B2 B2e2d2|c4B2 A2B2c2|1d6 d4d2:|2d6 d2e2|
|:f4d2 A2d2f2|g4e2 A2c2e2|f4d2 A2d2f2|e2f2d2 c2B2A2|
f4d2 A2d2f2|g4e2 A2c2e2|f2a2f2 g2e2c2|1e2d2d2 d4e2:|2e2d2d2 d4||
